X: 1
T: Cairin O't, The
M: 4/4
L: 1/8
R: reel
K: Amaj
|:E2| A2 AB cBcd| eaaf ecBA| dcdf ecBA| GABc BABc|
dcde fgaf| ecBA AGFE| A2 AB ceBd| c2A2 A2:|
|:af| ecAc e2 af| ecAc e2 (3cBA| dcde fgaf| g2e2 e2 dc|
dcde fgaf| ecBA AGFE| A2 AB ceBd| c2A2 A2:|
